X: 1572
T: Pençgâh-ı Zâid`e Meyletti
C: Ahmet Avni Konuk
O: Turkey
F: http://compmusic.upf.edu/node/140
N: pencgahizaid--kupe--devrirevanihindi----ahmet_avni_konuk
N: makam= pencgahizaid
N: form= kupe
N: usul= devrirevanihindi = 14/8
M: 14/8
L: 1/16
K: C _1/4B ^f  
Q: 1/4=102
%%MIDI tuningsystem comma53
d^c=B2 c2d4e2 {=f}edd2 c2d2 c3B A4  | \
w:  Pen *  *  cü gâh_ *  *  *  *  ı   | 
B^c=B2 c2d4e2 =f2e2 d2c2 d6z2  | 
w:  Zâ *  *  i de  *  *  mey  | 
d4 c2d2 c2{d}c2 d2d2 c4 B6z2  | d4 e=fd4g2 fee2 d2^3/4c2 d6z2  | 
w:  let ti  nâ *  *  *  *  yın   |  nağ *  *  me *  *  *  si    | 
d2c2 d2e4e2 a2a2 g2=f2 e2de d2c2  | \
w:  Mıt *  rı ba *  *  nın   | 
d4 e2d3cdc {d}cBB6 z8  | 
w:  Kâr  o kur *  *  *  *  *  *  ken   | 
A2A2 B2c3ed2 c2_2/4B4A2 dcBA G2z2  | \
w:  çık *  tı  hep  *  *  *  bir  | 
A_7/8BAB AGAc _2/4BAAG GFG2 F2AG G8  | 
w:  den  *  *  *  *  *  *  *  *  *  se *  *  *  si    | 
|


